X: 1
T: The Guns Of The Magnificent Seven
R: reel
M: 4/4
L: 1/8
K: Ador
|:EAA2 ABcA|EAFA GAEA|EAA2 ABcd|egdB BAA2:||:ABcd eAA2|gedB BAGB|ABcd eaaf|gedB BAA2:||:egdB A2|egdB GABd|eBdB Aa2f|gedB BAA2:|


Tune 40	Setting 12455

